fonts/kmap-icons/SVG_edits/sources.svg

<?xml version="1.0" encoding="utf-8"?>
<!-- Generated by IcoMoon.io -->
<!DOCTYPE svg PUBLIC "-//W3C//DTD SVG 1.1//EN" "http://www.w3.org/Graphics/SVG/1.1/DTD/svg11.dtd">
<svg version="1.1" xmlns="http://www.w3.org/2000/svg" xmlns:xlink="http://www.w3.org/1999/xlink" width="32" height="32" viewBox="0 0 32 32">
<g>
</g>
	<path d="M6 8v16h20v-16h-20zM24 22h-16v-12h16v12z" fill="#000000" />
	<path d="M16 22h-2v-12h2v12z" fill="#000000" />
	<path d="M18 12h4v3h-4v-3z" fill="#000000" />
	<path d="M12 22h-2v-12h2v12z" fill="#000000" />
</svg>

<?xml version="1.0" encoding="utf-8"?>
<!-- Generator: Adobe Illustrator 14.0.0, SVG Export Plug-In . SVG Version: 6.00 Build 43363)  -->
<!DOCTYPE svg PUBLIC "-//W3C//DTD SVG 1.1//EN" "http://www.w3.org/Graphics/SVG/1.1/DTD/svg11.dtd">
<svg version="1.1" id="Layer_1" xmlns="http://www.w3.org/2000/svg" xmlns:xlink="http://www.w3.org/1999/xlink" x="0px" y="0px"
	 width="32px" height="32px" viewBox="0 0 32 32" enable-background="new 0 0 32 32" xml:space="preserve">
<path fill-rule="evenodd" clip-rule="evenodd" fill="#231F20" d="M6,8v16h20V8H6z M24,22H8V10h16V22z"/>
<path fill-rule="evenodd" clip-rule="evenodd" fill="#231F20" d="M16,22h-2V10h2V22"/>
<path fill-rule="evenodd" clip-rule="evenodd" fill="#231F20" d="M18,12h4v3h-4V12z"/>
<path fill-rule="evenodd" clip-rule="evenodd" fill="#231F20" d="M12,22h-2V10h2V22"/>
</svg>
